X:1
T:Vulpius, CM
T:Vulpius, CM
T:Melchior Vulpius, 1609
T:Public Domain Courtesy of the Cyber Hymnal™
C:Melchior Vulpius, 1609
Z:Public Domain
Z:Courtesy of the Cyber Hymnal™
%%score ( 1 2 ) ( 3 4 )
L:1/8
Q:1/4=112
M:4/4
K:Eb
V:1 treble 
V:2 treble 
V:3 bass 
V:4 bass 
V:1
 [B,E]2 | [EG]2 [DF]2 [EG]2 [Ec]2 | [EB]2 [DA]2 [EG]2 [Ec]2 | [DB]2 [EA]2 [EG]2 [DF]2 | %4
 [EG]6 [FB]2 | [Fc]2 [Fd]2 [Ee]2 [Fd]2 | c4 [DB]2 [EG]2 | [EA]2 [EG]2 [EF]2 [DF]2 | E6 |] %9
V:2
 x2 | x8 | x8 | x8 | x8 | x8 | G2 F2 x4 | x8 | E6 |] %9
V:3
 [E,G,]2 | [E,B,]2 [B,,B,]2 [E,B,]2 [A,,A,]2 | (F,3 B,) [E,B,]2 [A,,A,]2 | %3
 [B,,F,]2 [C,C]2 [E,B,]2 [B,,B,]2 | [E,B,]6 [B,D]2 | [=A,C]2 B,2 [G,B,]2 [F,B,]2 | %6
 [E,B,]2 [F,=A,]2 [B,,B,]2 [E,B,]2 | [C,C]2 [E,B,]2 [B,,B,]2 [B,,B,]2 | [E,G,]6 |] %9
V:4
 x2 | x8 | B,,4 x4 | x8 | x8 | x2 B,2 x4 | x8 | x8 | x6 |] %9

